assets/icons/sort/descending.svg

<?xml version="1.0" encoding="UTF-8" standalone="no"?>
<svg
   viewBox="0 0 24 24"
   height="24"
   width="24"
   version="1.1"
   id="svg4"
   sodipodi:docname="descending.svg"
   inkscape:version="1.2 (1:1.2.1+202207142221+cd75a1ee6d)"
   xmlns:inkscape="http://www.inkscape.org/namespaces/inkscape"
   xmlns:sodipodi="http://sodipodi.sourceforge.net/DTD/sodipodi-0.dtd"
   xmlns="http://www.w3.org/2000/svg"
   xmlns:svg="http://www.w3.org/2000/svg">
  <defs
     id="defs8" />
  <sodipodi:namedview
     id="namedview6"
     pagecolor="#ffffff"
     bordercolor="#666666"
     borderopacity="1.0"
     inkscape:pageshadow="2"
     inkscape:pageopacity="0.0"
     inkscape:pagecheckerboard="0"
     showgrid="true"
     inkscape:snap-page="true"
     inkscape:zoom="32"
     inkscape:cx="11.75"
     inkscape:cy="11.53125"
     inkscape:window-width="1920"
     inkscape:window-height="1043"
     inkscape:window-x="0"
     inkscape:window-y="0"
     inkscape:window-maximized="1"
     inkscape:current-layer="svg4"
     inkscape:showpageshadow="2"
     inkscape:deskcolor="#d1d1d1">
    <inkscape:grid
       type="xygrid"
       id="grid821" />
    <inkscape:grid
       type="xygrid"
       id="grid995"
       dotted="true"
       spacingx="0.5"
       spacingy="0.5"
       empspacing="10" />
  </sodipodi:namedview>
  <path
     id="path2139"
     style="font-variant-ligatures:none;font-variant-position:normal;font-variant-caps:normal;font-variant-numeric:normal;font-variant-alternates:normal;font-feature-settings:normal;text-indent:0;text-decoration-line:none;text-decoration-style:solid;text-decoration-color:#000000;text-transform:none;shape-padding:0;isolation:auto;mix-blend-mode:normal;fill:#808080;stroke-width:1"
     d="m 16.5,20.5 c -0.583719,-0.924923 -1.14027,-1.866228 -1.667969,-2.824219 -0.494841,-0.906825 -0.941812,-1.79862 -1.349609,-2.675781 h 2.517578 v -10 h 1 v 10 h 2.515625 c -0.430316,0.903931 -0.885175,1.797219 -1.365234,2.675781 -0.52534,0.955853 -1.07592,1.897063 -1.650391,2.824219 z" />
  <path
     id="rect2331"
     style="fill:#808080;fill-rule:evenodd;stroke-width:2;stroke-linecap:square;stroke-linejoin:round"
     d="m 6,4 v 4 h 4 v -4 z m 1,1 h 2 v 2 h -2 z" />
  <path
     id="path2388"
     style="fill:#808080;fill-rule:evenodd;stroke-width:2;stroke-linecap:square;stroke-linejoin:round"
     d="m 6,10 v 4 h 4 v -4 z m 1,1 h 2 v 2 h -2 z" />
  <path
     id="path2390"
     style="fill:#808080;fill-rule:evenodd;stroke-width:2;stroke-linecap:square;stroke-linejoin:round"
     d="m 6,16 v 4 h 4 v -4 z m 1,1 h 2 v 2 h -2 z" />
</svg>

<svg height="24" width="24" xmlns="http://www.w3.org/2000/svg"><path style="font-variant-ligatures:none;font-variant-position:normal;font-variant-caps:normal;font-variant-numeric:normal;font-variant-alternates:normal;font-feature-settings:normal;text-indent:0;text-decoration-line:none;text-decoration-style:solid;text-decoration-color:#000;text-transform:none;shape-padding:0;isolation:auto;mix-blend-mode:normal;fill:gray;stroke-width:1" d="M16.5 20.5a55.14 55.14 0 0 1-1.668-2.824A46.516 46.516 0 0 1 13.482 15H16V5h1v10h2.516c-.43.904-.886 1.797-1.366 2.676A62.696 62.696 0 0 1 16.5 20.5z"/><path style="fill:gray;stroke-width:2;stroke-linecap:square;stroke-linejoin:round" d="M6 4v4h4V4zm1 1h2v2H7zm-1 5v4h4v-4zm1 1h2v2H7zm-1 5v4h4v-4zm1 1h2v2H7z"/></svg>
